modules/zondicons/icons/view-hide.svg

<?xml version="1.0" encoding="UTF-8" standalone="no"?>
<svg width="20px" height="20px" viewBox="0 0 20 20" version="1.1" xmlns="http://www.w3.org/2000/svg" xmlns:xlink="http://www.w3.org/1999/xlink">
    <!-- Generator: Sketch 3.7.2 (28276) - http://www.bohemiancoding.com/sketch -->
    <title>view-hide</title>
    <desc>Created with Sketch.</desc>
    <defs></defs>
    <g id="Page-1" stroke="none" stroke-width="1" fill="none" fill-rule="evenodd">
        <g id="view-hide" fill="#000000">
            <path d="M16.6166796,6.21174757 C17.9442722,7.21287251 19.0378031,8.50785377 19.8005808,10 C17.9798698,13.5616759 14.2746855,16 10,16 C9.02896677,16 8.08732049,15.8741795 7.19047483,15.6379523 L8.96391361,13.8645135 C9.29436687,13.9528855 9.64168134,14 10,14 C12.209139,14 14,12.209139 14,10 C14,9.64168134 13.9528855,9.29436687 13.8645135,8.96391361 L16.6166796,6.21174757 Z M12.8095252,4.36204771 C11.9126795,4.12582046 10.9710332,4 10,4 C5.72531453,4 2.02013017,6.43832409 0.199419187,10 C0.962196907,11.4921462 2.05572777,12.7871275 3.38332044,13.7882524 L6.13548648,11.0360864 C6.04711451,10.7056331 6,10.3583187 6,10 C6,7.790861 7.790861,6 10,6 C10.3583187,6 10.7056331,6.04711451 11.0360864,6.13548648 L12.8095252,4.36204771 Z M16.363961,2.22182541 L17.7781746,3.63603897 L3.63603897,17.7781746 L2.22182541,16.363961 L16.363961,2.22182541 Z" id="Combined-Shape"></path>
        </g>
    </g>
</svg>

<svg width="20" height="20" viewBox="0 0 20 20" xmlns="http://www.w3.org/2000/svg"><path d="M16.617 6.212A11.049 11.049 0 0 1 19.8 10 11 11 0 0 1 10 16c-.971 0-1.913-.126-2.81-.362l1.774-1.773A4.005 4.005 0 0 0 14 10c0-.358-.047-.706-.135-1.036l2.752-2.752zm-3.807-1.85A11.017 11.017 0 0 0 10 4a11 11 0 0 0-9.8 6 11.048 11.048 0 0 0 3.183 3.788l2.752-2.752A4.005 4.005 0 0 1 10 6c.358 0 .706.047 1.036.135l1.774-1.773zm3.554-2.14l1.414 1.414L3.636 17.778l-1.414-1.414L16.364 2.222z" fill="#000" fill-rule="evenodd"/></svg>
